X:176
T:RVW2/2/176 Our Ship She Lays in Harbour
C:Mr. Baker (Snr.), Forest Green, Surrey, 21 December 1904
L:1/4
Q:1/4=110
M:4/4
I:linebreak $
K:G
"^(Editorial suggestion)  " G | A3/2 G/ F G | (A B) G G |: c c (c/d/) e | d3 d |$ e c (c/d/) e | 
w: Our|ship she lays in|har- * bour all|rea- dy to _ set|sail, pray|heaven a- bove _ re-|
d (d/c/) B G/G/ | B d A c | G3 z :| 
w: ward you _ love with a|sweet and plea- sant|gale.|



